X:1
T:Branle de Bourgogne
Z:Bert Van Vreckem <bert.vanvreckem@gmail.com> 2004-12-30
M:C|
L:1/4
Q:1/2=104-116
K:Am
Ae ed | e2 ee | dB cd | e2 e2 :||: dd de | c2 B2 |
w:D\-_ x_ x G+ / D+_ x_ x G\-/ ... *****
c/B/A/G/ A/B/c/A/ | d2 B2 | dd de | c2 Bc | BA AG | A2 A2 :|
